packages/design-system/assets/images/logo-noname.svg

<?xml version="1.0" encoding="UTF-8" standalone="no"?>
<svg viewBox="0 0 40 28" version="1.1" xmlns="http://www.w3.org/2000/svg" xmlns:xlink="http://www.w3.org/1999/xlink" preserveAspectRatio="xMinYMid">
    <g stroke="none" stroke-width="1" fill="none" fill-rule="evenodd">
      <path d="M16.6549809,3.0655987 C17.9445853,1.72158012 19.7397728,0.887644617 21.725434,0.887644617 C24.364601,0.887644617 26.6676151,2.35999669 27.8936251,4.54607804 C28.9597208,4.0695877 30.1391568,3.80440642 31.3801757,3.80440642 C36.1406254,3.80440642 40,7.69938217 40,12.5042254 C40,17.309146 36.1406254,21.2040443 31.3801757,21.2040443 C30.7989292,21.2040443 30.2311443,21.1456827 29.6820818,21.0348422 C28.6024472,22.9617023 26.5441399,24.2636913 24.1824054,24.2636913 C23.1938299,24.2636913 22.2584818,24.035431 21.4256429,23.6289126 C20.3311542,26.2053353 17.7801838,28.0117569 14.808036,28.0117569 C11.7122582,28.0117569 9.07371017,26.0522329 8.06146086,23.3038218 C7.6186985,23.3974015 7.15999885,23.4467069 6.68969439,23.4467069 C3.00392785,23.4467069 0.0161522406,20.4263031 0.0161522406,16.7003746 C0.0161522406,14.2032896 1.35828775,12.0231683 3.35323278,10.8566338 C2.94242234,9.91092897 2.71442641,8.86769686 2.71442641,7.77097956 C2.71442641,3.48566256 6.19122891,0.0117569061 10.4802137,0.0117569061 C12.9983038,0.0117569061 15.2360216,1.20948459 16.6549809,3.0655987" id="Fill-1" fill="#00A1E0"></path>
    </g>
</svg>

<svg preserveAspectRatio="xMinYMid" viewBox="0 0 40 28" xmlns="http://www.w3.org/2000/svg"><path d="m16.655 3.0656c1.2896-1.344 3.0848-2.178 5.0704-2.178 2.6392 0 4.9422 1.4724 6.1682 3.6585 1.0661-.4765 2.2456-.7417 3.4866-.7417 4.7604 0 8.6198 3.895 8.6198 8.6998 0 4.805-3.8594 8.6998-8.6198 8.6998a8.5742 8.5742 0 0 1 -1.6981-.1692c-1.0797 1.9269-3.138 3.2289-5.4997 3.2289-.9886 0-1.924-.2283-2.7568-.6348-1.0944 2.5764-3.6454 4.3829-6.6176 4.3829-3.0957 0-5.7343-1.9596-6.7465-4.708a6.627 6.627 0 0 1 -1.3718.143c-3.6858 0-6.6735-3.0205-6.6735-6.7464 0-2.4971 1.342-4.6772 3.337-5.8438-.4108-.9457-.6388-1.9889-.6388-3.0856 0-4.2853 3.4768-7.7592 7.7658-7.7592 2.5181 0 4.7558 1.1977 6.1748 3.0538" fill="#00a1e0"/></svg>
